img/monoline.svg

<svg width="308" height="103" viewBox="0 0 308 103" fill="none" xmlns="http://www.w3.org/2000/svg">
<path d="M23.3836 4L4.02564 77.2289C4.01924 77.2531 4.01604 77.2652 4.01392 77.278C4.01181 77.2909 4.01098 77.3031 4.00932 77.3275C3.86605 79.4331 5.39771 78.0299 7.03092 74.5528C11.1054 65.8782 30.3506 37.5115 40.2272 37.5115C50.1038 37.5115 36.112 64.7478 40.2272 64.7478C45.1655 64.7478 56.4138 45.1377 59.9804 45.1377C64.9529 45.1377 50.3692 68.2698 42.6642 81.4345C42.2384 82.162 42.0255 82.5257 42.1758 82.6746C42.3262 82.8235 42.6905 82.6056 43.419 82.17C61.5249 71.3425 99.1167 51.6744 118.417 51.6744C141.767 51.6744 122.912 78.0527 109.592 95.3611C107.856 97.6172 106.988 98.7455 107.151 98.9147C107.313 99.084 108.478 98.2579 110.806 96.6058C125.164 86.4185 168.571 61.6778 255.173 58.2111C311.095 55.9725 314.981 72.9186 286.998 76.187" stroke="white" stroke-width="7" stroke-linecap="round" stroke-linejoin="round"/>
</svg>

<svg xmlns="http://www.w3.org/2000/svg" width="308" height="103" fill="none">
  <path stroke="#fff" stroke-linecap="round" stroke-linejoin="round" stroke-width="7" d="M23.384 4 4.026 77.229c-.007.024-.01.036-.012.049l-.005.05c-.143 2.105 1.389.702 3.022-2.775 4.074-8.675 23.32-37.041 33.196-37.041 9.877 0-4.115 27.236 0 27.236 4.939 0 16.187-19.61 19.753-19.61 4.973 0-9.61 23.132-17.316 36.297-.426.727-.639 1.09-.488 1.24.15.148.514-.07 1.243-.505 18.106-10.828 55.698-30.496 74.998-30.496 23.35 0 4.495 26.379-8.825 43.687-1.736 2.256-2.604 3.385-2.441 3.554.162.169 1.327-.657 3.655-2.31 14.358-10.187 57.765-34.927 144.367-38.394 55.922-2.239 59.808 14.708 31.825 17.976"/>
</svg>
